assets/Hammer and wrench/Flat/hammer_and_wrench_flat.svg

<svg width="32" height="32" viewBox="0 0 32 32" fill="none" xmlns="http://www.w3.org/2000/svg">
<path d="M13.1215 8.87866L28.1215 23.8787C29.2931 25.0502 29.2931 26.9497 28.1215 28.1213C26.95 29.2929 25.0505 29.2929 23.8789 28.1213L8.87891 13.1213L13.1215 8.87866Z" fill="#7D4533"/>
<path d="M11.4272 2.22958L4.35348 9.30331C4.15822 9.49857 4.15822 9.81515 4.35348 10.0104L5.99988 13L8.94967 14.6066C9.14493 14.8019 9.46152 14.8019 9.65678 14.6066L14.6065 9.65686C14.8018 9.4616 14.8018 9.14502 14.6065 8.94975L12.6568 7C12.1796 6.51953 12.6065 6 12.6065 6L15.3307 3.27588C15.6279 2.97861 15.4479 2.46948 15.0299 2.42512L11.8335 2.08592C11.6833 2.06999 11.534 2.12279 11.4272 2.22958Z" fill="#B4ACBC"/>
<path d="M26.32 9.12471L28.87 6.57471C29.19 6.24471 29.75 6.40471 29.86 6.85471C30.26 8.51471 29.82 10.3347 28.52 11.6347C27.1368 13.0178 25.1499 13.4348 23.4052 12.8789L13.6688 22.6835C14.195 24.4392 13.7508 26.4259 12.3499 27.7848C11.0499 29.0348 9.25993 29.4648 7.62993 29.0648C7.17993 28.9548 7.02993 28.3947 7.34993 28.0747L9.89993 25.5248C10.1299 25.2948 10.1299 24.9248 9.89993 24.6948L8.28993 23.0848C8.05993 22.8548 7.68993 22.8548 7.45993 23.0848L4.90993 25.6347C4.58993 25.9647 4.02993 25.8047 3.91993 25.3547C3.51993 23.6947 3.95993 21.8747 5.25993 20.5747C6.65638 19.1783 8.66835 18.7667 10.4251 19.3469L20.1268 9.57726C19.5764 7.8091 20.0155 5.79678 21.43 4.42472C22.73 3.17472 24.52 2.74472 26.15 3.14472C26.6 3.25472 26.75 3.81471 26.43 4.13471L23.88 6.68471C23.65 6.91471 23.65 7.28471 23.88 7.51471L25.49 9.12471C25.72 9.35471 26.09 9.35471 26.32 9.12471Z" fill="#B4ACBC"/>
<path d="M1.17674 11.2981C1.07911 11.2005 1.07911 11.0422 1.17674 10.9446L1.82021 10.3011C2.60126 9.52007 3.86758 9.52007 4.64863 10.3011L8.53772 14.1902C9.31877 14.9713 9.31877 16.2376 8.53772 17.0186L7.89425 17.6621C7.79662 17.7597 7.63833 17.7597 7.5407 17.6621L1.17674 11.2981Z" fill="#CDC4D6"/>
</svg>

<svg xmlns="http://www.w3.org/2000/svg" width="32" height="32" fill="none"><path fill="#7D4533" d="m13.121 8.879 15 15a3 3 0 1 1-4.242 4.242l-15-15L13.12 8.88Z"/><path fill="#B4ACBC" d="M11.427 2.23 4.353 9.303a.5.5 0 0 0 0 .707L6 13l2.95 1.607a.5.5 0 0 0 .707 0l4.95-4.95a.5.5 0 0 0 0-.707L12.657 7c-.477-.48-.05-1-.05-1l2.724-2.724a.5.5 0 0 0-.301-.85l-3.196-.34a.5.5 0 0 0-.407.144ZM26.32 9.125l2.55-2.55c.32-.33.88-.17.99.28.4 1.66-.04 3.48-1.34 4.78a5.058 5.058 0 0 1-5.115 1.244l-9.736 9.804a5.077 5.077 0 0 1-1.32 5.102 5.062 5.062 0 0 1-4.72 1.28.592.592 0 0 1-.28-.99l2.55-2.55c.23-.23.23-.6 0-.83l-1.61-1.61a.585.585 0 0 0-.83 0l-2.55 2.55c-.32.33-.88.17-.99-.28-.4-1.66.04-3.48 1.34-4.78a5.058 5.058 0 0 1 5.166-1.228l9.702-9.77a5.078 5.078 0 0 1 1.303-5.152 5.062 5.062 0 0 1 4.72-1.28c.45.11.6.67.28.99l-2.55 2.55c-.23.23-.23.6 0 .83l1.61 1.61c.23.23.6.23.83 0Z"/><path fill="#CDC4D6" d="M1.177 11.298a.25.25 0 0 1 0-.353l.643-.644a2 2 0 0 1 2.829 0l3.889 3.89a2 2 0 0 1 0 2.828l-.644.643a.25.25 0 0 1-.353 0l-6.364-6.364Z"/></svg>
